!!!SOCIAL_FUNCTION:	klokali songs
!!!PDT:	1939
!!!OTL: No_54_Song_With_Impersonation_of_a_Raven.krn
!!!LANG: Non-Tone
!!!LING_GROUP: Wakashan
!!!REG: Pacific Northwest
**kern
*staff1
=1-
=
*clefF4
*k[b-e-a-d-]
*M5/4
[2d-\
2d-\]
8.B-\L
16A-\Jk
=2||
*M3/4
4B-\
8A-\
8r
4r
=3||
*M5/4
[2B-\
2B-\]
4B-\
=4||
*M2/4
8.d-\L
16A-\Jk
8G\L
8F\J
=5
[2A-\
=6
2A-\]
=7
8F\L
8F\J
8F\
8r
=8
4r
8r
8G\
=9
4.A-\
8A-\
=10
16A-\
16r
16A-\
16r
16A-\
16r
16A-\
16r
=11
4A-\
4r
=12
2A-\
=13
8F\L
8F\J
8F\
8r
=14
4r
4A-\
=15
8.B-\L
16A-\Jk
8A-\L
16F\Jk
16r
==:|!
*-
